!!!COM: Music21
!!!OTL: Pasodoble Romántico
!!!OMV: pezas_pasodobles_pasodoble-romantico_pasodoble-romantico-partitura-1.musicxml
**kern
*I"Bagpipe
*I'Bag
*clefG^2
*k[b-e-a-]
*M2/4
*MM130
=1
!LO:TX:a:t=[quarter]=130
8r
8gg
8ggL
8ffJ
=||
8.ggL
16ee-Jk
[4cc
=
8ccL]
8ggJ
8ggL
8ffJ
=
8.ggL
16ee-Jk
[4cc
=
8ccL]
8ccJ
8ccL
8ddJ
=
8.ee-L
16ddJk
8ccL
8ddJ
=
8ee-L
8ee-J
8ffL
8ggJ
=
8.aa-L
16ggJk
[4ff
=
2ff_
!!linebreak:original
=
8ffL]
8ffJ
8ffL
8ggJ
=
8.aa-L
16ggJk
[4ff
=
8ffL]
8cccJ
8ggL
8ffJ
=
16ggLL
16aa-
16gg
16ffJJ
[4ee-
=
8ee-L]
8cccJ
8cccL
8dddJ
=
8cccL
8ggJ
8ggL
8aa-J
=
8ggL
8ffJ
8ee-L
8ddJ
=
[2cc
=
8ccL]
8ggJ
8ggL
8ffJ
!!linebreak:original
=||
8.ggL
16ee-Jk
[4cc
=
8ccL]
8ggJ
8ggL
8ffJ
=
8.ggL
16ee-Jk
[4cc
=
8ccL]
8ccJ
8ccL
8ddJ
=
8.ee-L
16ddJk
8ccL
8ddJ
=
8ee-L
8ee-J
8ffL
8ggJ
=
8.aa-L
16ggJk
[4ff
=
2ff_
!!linebreak:original
=
8ffL]
8ffJ
8ffL
8ggJ
=
8.aa-L
16ggJk
[4ff
=
8ffL]
8cccJ
8ggL
8ffJ
=
16ggLL
16aa-
16gg
16ffJJ
[4ee-
=
8ee-L]
8cccJ
8cccL
8dddJ
=
8cccL
8ggJ
8ggL
8aa-J
=
8ggL
8ffJ
8ee-L
8ddJ
!!linebreak:original
=
[2cc
=
8ccL]
8ccJ
8ffL
8ggJ
=
8.aa-L
16ggJk
[4aa-
=
8aa-L]
8ggJ
8ffL
8ee-J
=
16ddLL
16ee-
16dd
16ccJJ
[4dd
=
8ddL]
8bnJ
8ccL
8ddJ
=
8.ffL
16ee-Jk
[4gg
=
8ggL]
8ffJ
8ee-L
8ddJ
!!linebreak:original
=
16ccLL
16dd
16cc
16bnJJ
[4cc
=
8ccL]
8ccJ
8eenL
8ggJ
=||
4ccc
4ccc
=
8cccL
8bb-J
8aa-L
8ggJ
=
4bb-
[4aa-
=
8aa-L]
8ggJ
8ffL
8ee-J
=
8ddL
8ee-J
8ffL
8ggJ
=
8ee-L
8ggJ
8ddL
8ggJ
=
[2cc
!!linebreak:original
=
8ccL]
8ccJ
8eenL
8ggJ
=||
4ccc
4ccc
=
8cccL
8bb-J
8aa-L
8ggJ
=
4bb-
[4aa-
=
8aa-L]
8ggJ
8ffL
8ee-J
=
8ddL
8ee-J
8ffL
8ggJ
=
8ee-L
8ggJ
8ddL
8ggJ
=
[2cc
=
4cc]
8r
8cc
=||
4.ff
8aa-
!!linebreak:original
=
4.gg
8ee-
=
4cc
12ee-L
12dd
12ccJ
=
4.dd
8ee-
=
8ffL
8ggJ
8bb-L
8aa-J
=
[2gg
=
2gg]
!!linebreak:original
=
8.ffL
16ffJk
8ffL
8ffJ
=
4ccc
4ccc
=
8.ffL
16ffJk
8ffL
8ggJ
=
4.ee-
8cc
=
8.ee-L
16ee-Jk
8ee-L
8ee-J
=
8ddL
8ccJ
8ee-L
8ddJ
=
[2cc
=
8ccL]
16ccL
16ddJJ
16ee-LL
16cc
16dd
16ee-JJ
=||
4.ff
8aa-
!!linebreak:original
=
4.gg
8ee-
=
4cc
12ee-L
12dd
12ccJ
=
4.dd
8ee-
=
8ffL
8ggJ
8bb-L
8aa-J
=
[2gg
=
2gg]
!!pagebreak:original
=
8.ffL
16ffJk
8ffL
8ffJ
=
4ccc
4ccc
=
8.ffL
16ffJk
8ffL
8ggJ
=
4.ee-
8cc
=
8.ee-L
16ee-Jk
8ee-L
8ee-J
=
8ddL
8ccJ
8ee-L
8ddJ
=
[2cc
!!linebreak:original
=
8ccL]
8ggJ
8ggL
8ffJ
==
*-
